img/icons/slack.svg

<svg fill="none" height="48" viewBox="0 0 48 48" width="48" xmlns="http://www.w3.org/2000/svg" xmlns:xlink="http://www.w3.org/1999/xlink"><clipPath id="a"><path d="m0 0h48v48h-48z"/></clipPath><g clip-path="url(#a)"><path d="m17.686 25.3022c-2.784 0-5.042 2.258-5.042 5.042v12.6121c0 2.784 2.258 5.042 5.042 5.042s5.042-2.258 5.042-5.042v-12.6121c-.002-2.784-2.26-5.042-5.042-5.042z" fill="#e91e63"/><path d="m.0380859 30.3443c0 2.786 2.2600041 5.046 5.0460041 5.046s5.04601-2.26 5.04601-5.046v-5.046h-5.04201c-.002 0-.002 0-.004 0-2.786 0-5.0460041 2.26-5.0460041 5.046z" fill="#e91e63"/><path d="m17.6919-.00097656c-.002 0-.004 0-.006 0-2.786 0-5.046 2.25999656-5.046 5.04599656s2.26 5.04598 5.046 5.04598h5.042v-5.04598c0-.002 0-.006 0-.01-.002-2.782-2.256-5.03599656-5.036-5.03599656z" fill="#00bcd4"/><path d="m5.05003 22.74h12.63597c2.786 0 5.046-2.26 5.046-5.046s-2.26-5.0461-5.046-5.0461h-12.63597c-2.786 0-5.04600168 2.2601-5.04600168 5.0461s2.26000168 5.046 5.04600168 5.046z" fill="#00bcd4"/><path d="m42.9139 12.646c-2.782 0-5.036 2.254-5.036 5.036v.01 5.046h5.042c2.786 0 5.046-2.26 5.046-5.046s-2.26-5.046-5.046-5.046c-.002 0-.004 0-.006 0z" fill="#4caf50"/><path d="m25.282 5.04298v12.65002c0 2.784 2.258 5.042 5.042 5.042s5.042-2.258 5.042-5.042v-12.65002c0-2.784-2.258-5.04200344-5.042-5.04200344s-5.042 2.25800344-5.042 5.04200344z" fill="#4caf50"/><g fill="#ff9800"><path d="m35.364 42.9522c0-2.784-2.258-5.042-5.042-5.042h-5.042v5.046c.002 2.782 2.258 5.038 5.042 5.038s5.042-2.258 5.042-5.042z"/><path d="m42.9582 25.2983h-12.6361c-2.786 0-5.046 2.26-5.046 5.046s2.26 5.046 5.046 5.046h12.6361c2.786 0 5.046-2.26 5.046-5.046s-2.26-5.046-5.046-5.046z"/></g></g></svg>

<svg width="48" height="48" viewBox="0 0 48 48" fill="none" xmlns="http://www.w3.org/2000/svg">
<g clip-path="url(#clip0)">
<path d="M17.686 25.3022C14.902 25.3022 12.644 27.5602 12.644 30.3442V42.9563C12.644 45.7403 14.902 47.9983 17.686 47.9983C20.47 47.9983 22.728 45.7403 22.728 42.9563V30.3442C22.726 27.5602 20.468 25.3022 17.686 25.3022Z" fill="#E91E63"/>
<path d="M0.0380859 30.3443C0.0380859 33.1303 2.29809 35.3903 5.08409 35.3903C7.87009 35.3903 10.1301 33.1303 10.1301 30.3443V25.2983H5.08809C5.08609 25.2983 5.08609 25.2983 5.08409 25.2983C2.29809 25.2983 0.0380859 27.5583 0.0380859 30.3443Z" fill="#E91E63"/>
<path d="M17.6919 -0.000976562C17.6899 -0.000976562 17.6879 -0.000976562 17.6859 -0.000976562C14.8999 -0.000976562 12.6399 2.25902 12.6399 5.04502C12.6399 7.83102 14.8999 10.091 17.6859 10.091H22.7279V5.04502C22.7279 5.04302 22.7279 5.03902 22.7279 5.03502C22.7259 2.25302 20.4719 -0.000976562 17.6919 -0.000976562Z" fill="#00BCD4"/>
<path d="M5.05003 22.74H17.686C20.472 22.74 22.732 20.48 22.732 17.694C22.732 14.908 20.472 12.6479 17.686 12.6479H5.05003C2.26403 12.6479 0.00402832 14.908 0.00402832 17.694C0.00402832 20.48 2.26403 22.74 5.05003 22.74Z" fill="#00BCD4"/>
<path d="M42.9139 12.646C40.1319 12.646 37.8779 14.9 37.8779 17.682V17.692V22.738H42.9199C45.7059 22.738 47.9659 20.478 47.9659 17.692C47.9659 14.906 45.7059 12.646 42.9199 12.646C42.9179 12.646 42.9159 12.646 42.9139 12.646Z" fill="#4CAF50"/>
<path d="M25.282 5.04298V17.693C25.282 20.477 27.54 22.735 30.324 22.735C33.108 22.735 35.366 20.477 35.366 17.693V5.04298C35.366 2.25898 33.108 0.000976562 30.324 0.000976562C27.54 0.000976562 25.282 2.25898 25.282 5.04298Z" fill="#4CAF50"/>
<path d="M35.364 42.9522C35.364 40.1682 33.106 37.9102 30.322 37.9102H25.28V42.9562C25.282 45.7382 27.538 47.9942 30.322 47.9942C33.106 47.9942 35.364 45.7362 35.364 42.9522Z" fill="#FF9800"/>
<path d="M42.9582 25.2983H30.3221C27.5361 25.2983 25.2761 27.5583 25.2761 30.3443C25.2761 33.1303 27.5361 35.3903 30.3221 35.3903H42.9582C45.7442 35.3903 48.0042 33.1303 48.0042 30.3443C48.0042 27.5583 45.7442 25.2983 42.9582 25.2983Z" fill="#FF9800"/>
</g>
<defs>
<clipPath id="clip0">
<rect width="48" height="48" fill="white"/>
</clipPath>
</defs>
</svg>
